src/parts/graphicShirt/Diamond.svg

<svg>
  <g
    id="Clothing/Graphic-Shirt"
    transform="translate(0.000000, 170.000000)"
  >
    <defs>
      <path
        id="react-path-1153"
        d="M165.624032,29.2681342 C202.760022,32.1373245 232,63.1798426 232,101.051724 L232,110 L32,110 L32,101.051724 C32,62.8348009 61.7752018,31.5722494 99.3929298,29.1967444 C99.1342224,30.2735458 99,31.3767131 99,32.5 C99,44.3741221 113.998461,54 132.5,54 C151.001539,54 166,44.3741221 166,32.5 C166,31.4015235 165.871641,30.3222877 165.624025,29.2681336 Z"
      />
    </defs>
    <mask
      id="react-mask-1154"
      fill="white"
    >
      <use href="#react-path-1153" />
    </mask>
    <use
      id="Clothes"
      fill="#E6E6E6"
      fill-rule="evenodd"
      href="#react-path-1153"
    />
    <g
      id="Color/Palette/"
      mask="url(#react-mask-1154)"
      fill-rule="evenodd"
      fill="var(--avataaar-shirt-color)"
    >
      <rect
        id="Color"
        x="0"
        y="0"
        width="264"
        height="110"
      />
    </g>
    <g
      id="Clothing/Graphic/Diamond"
      stroke-width="1"
      fill-rule="evenodd"
    >
      <g
        id="Diamond"
        transform="translate(77.000000, 58.000000)"
      >
        <g transform="translate(29.000000, 2.000000)">
          <path
            id="Fill-21"
            d="M34.7804613,27.7365051 C32.3910217,30.3933795 29.9226048,32.9801662 27.4446301,35.5565142 C28.4300853,32.0044048 29.1846452,27.9785814 30.6489944,24.5994547 C31.0655115,23.6371144 30.7485963,23.5153306 31.576097,23.1057395 C32.1847753,22.8045111 33.6536519,23.1494823 34.3825567,23.1678741 C35.9404713,23.2066461 37.5335988,23.3597457 39.0789374,23.1186635 C37.6281703,24.6436945 36.1869609,26.1712109 34.7804613,27.7365051 M19.5162179,31.798118 C16.8174087,28.5164183 14.1321816,25.2302449 10.8578947,22.4814113 C12.146683,22.6176103 13.5536857,22.4376686 14.8163159,22.687201 C16.7595591,23.0714412 16.6534177,23.6778747 17.6358547,25.6458009 C19.0866218,28.5522078 20.5248129,31.434755 21.6858291,34.4689106 C20.9750337,33.5692019 20.2446197,32.6844056 19.5162179,31.798118 M10.4182378,19.266817 C11.3810563,17.6920783 11.5616476,16.294796 13.3373785,15.4865494 C15.3988361,14.5480688 18.6379102,14.7454082 20.8256308,14.5709343 C19.4553501,16.093977 17.7887788,17.6736865 17.2223558,19.6928116 C16.3480725,17.9749149 15.2599971,16.5189775 13.5521766,15.5223389 C13.3368755,15.4159645 14.7101745,20.0725781 14.8897597,20.3926954 C13.1743936,20.2967597 11.3684803,19.9850926 9.66518708,20.3012334 C9.916204,19.9562622 10.1672209,19.611291 10.4182378,19.266817 M26.8243819,14.2592673 C28.4154971,14.2945597 29.9940364,14.4183318 31.563521,14.6783029 C30.2968665,16.353451 29.9150592,18.3104416 29.4653415,20.3086895 C28.9869505,18.0509676 27.2564932,15.9473394 25.7312761,14.2607585 C26.095477,14.2602615 26.4596779,14.2597644 26.8243819,14.2592673 M23.3257392,15.3334498 C23.5601558,15.1748824 27.7826729,20.4190405 28.3923573,20.889275 C25.0798394,20.8813217 21.7743641,20.7192748 18.4658705,20.5736313 C20.3728949,19.0868752 21.4886374,16.8863171 23.3257392,15.3334498 M26.0124754,32.4289082 C25.6105465,33.7779741 25.2352788,35.1369815 24.797634,36.4756088 C23.2432407,31.7444337 20.9357965,27.288142 18.7898282,22.8020257 C22.1295103,22.8900083 25.465671,23.0107979 28.8058561,23.0575231 C27.9864041,26.2164449 26.9441054,29.3032906 26.0124754,32.4289082 M33.2416622,14.9656131 C34.5188805,16.093977 36.338879,18.4063774 36.9284418,19.1833081 C36.9867944,19.260355 37.0461531,19.3369048 37.1070209,19.4124604 C37.3177947,19.6744198 38.0733606,20.6680759 38.3701542,21.0567898 C36.1426934,20.8306199 33.8251885,20.9270528 31.5901821,20.9066727 C32.0881916,18.8527521 32.6938517,16.8952645 32.1737084,14.7787123 C32.5308668,14.8363732 32.886516,14.8985078 33.2416622,14.9656131 M40.8898811,20.5830758 C38.7323429,17.9068154 36.5199733,13.3247633 33.025858,12.5055811 C29.5538765,11.6918667 25.478247,12.0517501 21.9519372,12.2754346 C18.8773572,12.4702886 13.8690917,12.0721303 11.1572035,13.8690622 C9.76378291,14.7921334 8.73154499,16.8738902 8.2491297,18.4202955 C7.81450321,19.8131041 8.51523782,20.7048596 7.00259677,20.7048596 C6.90651615,20.7048596 9.50672951,24.3777585 9.81308082,24.66656 C12.0853121,26.8064748 14.2574385,28.8688456 16.2701013,31.2642577 C19.1047312,34.6379166 21.6747622,39.6022206 25.414864,41 C24.7292206,40.6609938 28.2067356,38.0334469 28.6242587,37.5811072 C30.7355173,35.2930636 32.8709217,33.0268914 34.9967685,30.7517718 C36.9349813,28.6779682 39.0472459,26.7209776 40.9271061,24.6004489 C42.361776,22.9824645 42.3658003,22.4262358 40.8898811,20.5830758"
            fill="#FFFFFF"
          />
          <path
            id="Fill-23"
            d="M6.99858316,11.9999257 C7.04159508,12.0142408 6.09038895,9.95483812 6.17394084,10.0812061 C5.69932656,9.36248835 5.12830624,8.8402333 4.43566602,8.35351923 C3.70792411,7.84261755 0.1270582,7.25421678 0,7 C1.49355183,9.65224611 4.16721231,11.1276907 6.99858316,11.9999257"
            fill="#FFFFFF"
          />
          <path
            id="Fill-25"
            d="M22.3553325,7.19614224 C22.5279973,7.84840006 22.7925782,8.44932951 23.1490753,8.99893058 C23.2186566,9.07737584 24.0076748,4.81518326 23.9999436,4.45201075 C23.9866286,3.8317121 23.6120919,0 22.814054,0 C21.4769753,0 22.1397162,6.46931298 22.3553325,7.19614224"
            fill="#FFFFFF"
          />
          <path
            id="Fill-27"
            d="M48.969198,5 C45.977552,5 39.2896081,10.8535875 40.0615528,13.9997703 C40.0673207,14.0103781 40.50905,13.6497123 40.4129174,13.7172166 C40.4321439,13.7032335 40.4508897,13.6887683 40.4691549,13.6738209 C41.7405084,12.649202 43.1873037,11.6544779 44.4605798,10.4683308 C45.3723974,9.61874094 46.4476403,8.85642448 47.2772645,7.92727594 C47.3618612,7.83276992 49.2628831,5 48.969198,5"
            fill="#FFFFFF"
          />
        </g>
      </g>
    </g>
  </g>
</svg>

<svg>
  <g id="Clothing/Graphic-Shirt" transform="translate(0 170)">
    <defs>
      <path id="react-path-1153" d="M165.624 29.268C202.76 32.138 232 63.18 232 101.052V110H32v-8.948c0-38.217 29.775-69.48 67.393-71.855A14.107 14.107 0 0 0 99 32.5C99 44.374 113.998 54 132.5 54c18.502 0 33.5-9.626 33.5-21.5 0-1.098-.128-2.178-.376-3.232Z"/>
    </defs>
    <mask id="react-mask-1154" fill="#fff">
      <use href="#react-path-1153"/>
    </mask>
    <use id="Clothes" fill="#E6E6E6" fill-rule="evenodd" href="#react-path-1153"/>
    <g id="Color/Palette/" fill="var(--avataaar-shirt-color)" fill-rule="evenodd" mask="url(#react-mask-1154)">
      <path id="Color" d="M0 0h264v110H0z"/>
    </g>
    <g id="Clothing/Graphic/Diamond" fill-rule="evenodd" stroke-width="1">
      <g id="Diamond" fill="#FFF" transform="translate(106 60)">
        <path id="Fill-21" d="M34.78 27.737c-2.389 2.656-4.857 5.243-7.335 7.82.985-3.553 1.74-7.578 3.204-10.958.417-.962.1-1.084.927-1.493.609-.301 2.078.043 2.807.062 1.557.039 3.15.192 4.696-.05a221.739 221.739 0 0 0-4.299 4.619m-15.264 4.061c-2.699-3.282-5.384-6.568-8.658-9.317 1.289.137 2.696-.043 3.958.206 1.944.384 1.837.99 2.82 2.959 1.45 2.906 2.889 5.789 4.05 8.823-.711-.9-1.441-1.785-2.17-2.67m-9.098-12.532c.963-1.575 1.144-2.972 2.92-3.78 2.06-.939 5.3-.742 7.488-.916-1.37 1.523-3.037 3.103-3.604 5.122-.874-1.718-1.962-3.174-3.67-4.17-.215-.107 1.158 4.55 1.338 4.87-1.716-.096-3.522-.408-5.225-.092l.753-1.034m16.406-5.008c1.591.036 3.17.16 4.74.42-1.267 1.674-1.649 3.631-2.099 5.63-.478-2.258-2.209-4.362-3.734-6.048l1.093-.002m-3.498 1.074c.234-.158 4.457 5.086 5.066 5.556-3.312-.008-6.618-.17-9.926-.315 1.907-1.487 3.023-3.688 4.86-5.24m2.686 17.095c-.401 1.349-.777 2.708-1.214 4.047-1.555-4.732-3.862-9.188-6.008-13.674 3.34.088 6.676.209 10.016.256-.82 3.158-1.862 6.245-2.794 9.37m7.23-17.462c1.277 1.128 3.097 3.44 3.686 4.217a9.7 9.7 0 0 0 .179.23c.21.261.966 1.255 1.263 1.644-2.227-.226-4.545-.13-6.78-.15.498-2.054 1.104-4.012.584-6.128.357.057.713.12 1.068.187m7.648 5.617c-2.158-2.676-4.37-7.258-7.864-8.077-3.472-.814-7.548-.454-11.074-.23-3.075.194-8.083-.204-10.795 1.593-1.393.923-2.425 3.005-2.908 4.551-.434 1.393.266 2.285-1.246 2.285-.096 0 2.504 3.673 2.81 3.962 2.272 2.14 4.444 4.202 6.457 6.597 2.835 3.374 5.405 8.338 9.145 9.736-.686-.339 2.792-2.967 3.21-3.419 2.11-2.288 4.246-4.554 6.372-6.83 1.938-2.073 4.05-4.03 5.93-6.15 1.435-1.619 1.439-2.175-.037-4.018"/>
        <path id="Fill-23" d="M6.999 12c.043.014-.909-2.045-.825-1.919-.475-.719-1.046-1.24-1.738-1.727C3.708 7.843.127 7.254 0 7c1.494 2.652 4.167 4.128 6.999 5"/>
        <path id="Fill-25" d="M22.355 7.196A6.21 6.21 0 0 0 23.15 9c.07.078.859-4.184.85-4.547C23.988 3.832 23.613 0 22.815 0c-1.337 0-.674 6.47-.459 7.196"/>
        <path id="Fill-27" d="M48.97 5c-2.992 0-9.68 5.854-8.908 9 .005.01.447-.35.35-.283a.849.849 0 0 0 .057-.043c1.272-1.025 2.718-2.02 3.992-3.206.911-.85 1.987-1.612 2.816-2.54C47.362 7.832 49.263 5 48.97 5"/>
      </g>
    </g>
  </g>
</svg>
